X:1
T:Farewell to Ireland  "1998.3"
M:C
L:1/8
Q:80
C:Traditional
S:Reel
K:HP
[| {g}A3/2{d}A/2{e}A3/2{d}B/2e3/2{g}e/2{A}e3/2f/2 | \
{a}g3/2e/2{g}d3/2B/2{g}G3/2A/2{g}B/2{d}G3/2 | \
{g}A3/2{d}A/2{e}A3/2{d}B/2e3/2{g}e/2{A}e3/2f/2 |
{a}g3/2e/2{g}d3/2g/2{a}e3/2A/2{gAGAG}A2 | \
{g}A3/2{d}A/2{e}A3/2{d}B/2e3/2{g}e/2{A}e3/2f/2 | \
{a}g3/2e/2{g}d3/2B/2{gGd}G2{gf}g2 |
{a}e3/2d/2{g}e3/2g/2{ag}a2e3/2a/2 | \
g3/2e/2{g}d3/2g/2{a}e3/2A/2{gAGAG}A2|]
{ag}a2-a3/2g/2a3/2g/2{a}e3/2f/2 |
{gf}g2a3/2f/2g3/2e/2{g}d3/2g/2 | \
{a}e3/2a/2{g}a3/2g/2a3/2g/2{a}e3/2f/2 | \
{a}g3/2e/2{g}d3/2g/2{a}e3/2A/2{gAGAG}A2 |
a3/2g/2{a}e3/2f/2{a}g3/2a/2g3/2e/2 | \
{g}d3/2c/2{g}d3/2B/2{g}G3/2A/2{g}B3/2d/2 | \
{g}((3cBA){g}e3/2A/2{g}B3/2d/2{g}e3/2a/2 |
g3/2e/2{g}d3/2g/2{a}e3/2A/2{gAGAG}A2|]
